X:9
T:Gavot by Mr Stanley. BC.09
M:C|
L:1/4
Q:90
C:John Stanley,1712-1786
S:Benjamin Cooke MS.circa 1770, F.Kidson Coll.
R:Gavotte
O:England
A:x
N:John Stanley was Master of the King's Band from 1
Z:vmp.John Bagnall
K:G
 B A/G/ d c/B/| g f/e/ Td2 | e/c/B/A/ d/B/ A/G/ | c B TA2 |
 B A/G/ d c/B/ | g f/e/ d2 | e/c/B/A/ d/B/ A/G/ | B/A/ G/F/ G2 |
|B A/G/ A D | A B c2 | c B/A/ B E | B e T^d2 |
 g f/e/ f/d/ c/B/ | e d/c/ d/B/ A/G/ | c B/A/ B/e/ d/c/ | B/A/ G/F/ E2 |
 B A/G/ d c/B/ | g f/e/ d2 | e/c/ B/A/ d/B/ A/G/ | c B TA2 |
 B A/G/ dc/B/ | g f/e/ Td2 | e/c/ B/A/ d/B/ A/G/ | B/A/G/F/ G2 |]

